16x16/devices/network-wired-activated.svg

<svg height="16" width="16" xmlns="http://www.w3.org/2000/svg"><g fill="#8b9cbe"><g><path d="m10 .46v2.532h-3v1h4v-1.47l3.406 2.97-3.406 2.968v-1.468h-3v1h2v2.53l.813-.655 5.187-4.375-5.187-4.375z"/><path d="m6 4.46-.812.657-5.188 4.375 5.188 4.375.812.656v-2.531h3v-1h-4v1.468l-3.406-2.968 3.406-2.97v1.47h3v-1h-2v-1.5z"/></g><path d="m14 12.5a1.5 1.5 0 0 1 -1.5 1.5 1.5 1.5 0 0 1 -1.5-1.5 1.5 1.5 0 0 1 1.5-1.5 1.5 1.5 0 0 1 1.5 1.5z"/></g></svg>

<svg width="16" height="16" xmlns="http://www.w3.org/2000/svg"><defs><style id="current-color-scheme" type="text/css">.ColorScheme-Text{color:#8b9cbe}</style></defs><g class="ColorScheme-Text" fill="currentColor"><path d="M10 .46v2.532H7v1h4v-1.47l3.406 2.97L11 8.46V6.992H8v1h2v2.53l.813-.655L16 5.492l-5.187-4.375z"/><path d="m6 4.46-.812.657L0 9.492l5.188 4.375.812.656v-2.531h3v-1H5v1.468L1.594 9.492 5 6.522v1.47h3v-1H6v-1.5z"/></g><path d="M14 12.5a1.5 1.5 0 0 1-1.5 1.5 1.5 1.5 0 0 1-1.5-1.5 1.5 1.5 0 0 1 1.5-1.5 1.5 1.5 0 0 1 1.5 1.5z" style="fill:currentColor" class="ColorScheme-Text"/></svg>
